svgs/duotone/square-up.svg

<svg xmlns="http://www.w3.org/2000/svg" viewBox="0 0 448 512"><!-- Font Awesome Pro 6.0.0-alpha2 by @fontawesome - https://fontawesome.com License - https://fontawesome.com/license (Commercial License) --><defs><style>.fa-secondary{opacity:.4}</style></defs><path d="M384 32H64C28.654 32 0 60.654 0 96V416C0 451.346 28.654 480 64 480H384C419.346 480 448 451.346 448 416V96C448 60.654 419.346 32 384 32ZM350.781 246.125C348.312 252.109 342.469 256 336 256H272V352C272 369.673 257.673 384 240 384H208C190.327 384 176 369.673 176 352V256H112C105.531 256 99.688 252.109 97.219 246.125C94.734 240.141 96.109 233.266 100.688 228.688L212.688 116.688C218.935 110.44 229.065 110.44 235.312 116.688L347.312 228.688C351.891 233.266 353.266 240.141 350.781 246.125Z" class="fa-secondary"/><path d="M350.785 246.125C348.316 252.109 342.472 256 336.004 256H272.004V360C272.004 373.255 261.258 384 248.004 384H200.004C186.749 384 176.004 373.255 176.004 360V256H112.004C105.535 256 99.691 252.109 97.222 246.125C94.738 240.141 96.113 233.266 100.691 228.688L212.691 116.688C218.939 110.44 229.068 110.44 235.316 116.688L347.316 228.688C351.894 233.266 353.269 240.141 350.785 246.125Z" class="fa-primary"/></svg>

<svg xmlns="http://www.w3.org/2000/svg" viewBox="0 0 448 512"><!--! Font Awesome Pro 6.3.0 by @fontawesome - https://fontawesome.com License - https://fontawesome.com/license (Commercial License) Copyright 2023 Fonticons, Inc. --><defs><style>.fa-secondary{opacity:.4}</style></defs><path class="fa-primary" d="M350.8 246.1C348.3 252.1 342.5 256 336 256h-64v104c0 13.25-10.75 24-24 24h-48c-13.25 0-24-10.75-24-24V256h-64C105.5 256 99.69 252.1 97.22 246.1C94.73 240.1 96.11 233.3 100.7 228.7l112-112c6.248-6.248 16.38-6.248 22.62 0l112 112C351.9 233.3 353.3 240.1 350.8 246.1z"/><path class="fa-secondary" d="M384 32H64C28.65 32 0 60.65 0 96v320c0 35.35 28.65 64 64 64h320c35.35 0 64-28.65 64-64V96C448 60.65 419.3 32 384 32zM350.8 246.1C348.3 252.1 342.5 256 336 256h-64v96c0 17.67-14.33 32-32 32h-32c-17.67 0-32-14.33-32-32V256h-64C105.5 256 99.69 252.1 97.22 246.1C94.73 240.1 96.11 233.3 100.7 228.7l112-112c6.248-6.248 16.38-6.248 22.62 0l112 112C351.9 233.3 353.3 240.1 350.8 246.1z"/></svg>
